data/chains/V2/bitcoin/bitcoin.branded.svg

<svg width="24" height="24" viewBox="0 0 24 24" fill="none" xmlns="http://www.w3.org/2000/svg">
<path d="M19.5146 10.0401C19.8249 7.93474 18.2311 6.81215 16.0359 6.04989L16.747 3.21297L15.0134 2.78154L14.3216 5.54855L12.9381 5.21774L13.6395 2.43084L11.9053 2L11.1936 4.84716L10.091 4.58624V4.5766L7.69513 3.97464L7.23355 5.82935C7.23355 5.82935 8.51704 6.13064 8.49655 6.14028C9.19855 6.32105 9.31907 6.78203 9.29918 7.14296L8.49655 10.3909L8.67733 10.4511L8.48691 10.4107L7.35408 14.9523C7.27393 15.1633 7.05279 15.4837 6.56229 15.353C6.58218 15.3831 5.30894 15.0524 5.30894 15.0524L4.44727 17.0276L6.70269 17.5886L7.93555 17.9098L7.21368 20.787L8.94788 21.2179L9.64989 18.3707L11.043 18.7316L10.332 21.5685L12.0656 22L12.7773 19.1228C15.7346 19.6838 17.9605 19.4637 18.8934 16.7865C19.6448 14.6317 18.853 13.3982 17.2989 12.5764C18.4318 12.3257 19.2838 11.5736 19.5044 10.0395L19.5146 10.0401ZM15.5545 15.594C15.023 17.7495 11.3943 16.5763 10.2218 16.2955L11.1738 12.4764C12.3464 12.777 16.1161 13.3482 15.5545 15.5837V15.594ZM16.086 10.01C15.6045 11.9647 12.5771 10.9723 11.6046 10.7319L12.4663 7.27311C13.4491 7.51415 16.5969 7.97511 16.086 10.01Z" fill="#F7931A"/>
</svg>

<svg xmlns="http://www.w3.org/2000/svg" width="24" height="24" fill="none" viewBox="0 0 24 24">
    <path fill="#F7931A" d="M19.514 10.04c.31-2.105-1.283-3.228-3.478-3.99l.71-2.837-1.733-.431-.692 2.767-1.383-.331.701-2.787L11.905 2l-.712 2.847-1.102-.26v-.01l-2.396-.602-.462 1.854s1.284.302 1.263.311c.702.181.823.642.803 1.003l-.803 3.248.181.06-.19-.04-1.133 4.541c-.08.211-.301.532-.792.401.02.03-1.253-.3-1.253-.3l-.862 1.974 2.255.561 1.233.322-.722 2.877 1.735.43.702-2.846 1.393.36-.711 2.838 1.733.431.712-2.877c2.957.56 5.183.34 6.116-2.337.752-2.154-.04-3.388-1.594-4.21 1.133-.25 1.985-1.002 2.205-2.536zm-3.96 5.554c-.531 2.156-4.16.982-5.332.701l.952-3.819c1.172.301 4.942.872 4.38 3.108zm.532-5.584c-.482 1.955-3.509.962-4.482.722l.862-3.459c.983.241 4.13.702 3.62 2.737"/>
</svg>
